vi-base/public/vi/viur-shoelace/assets/icons/add-box.svg

<svg xmlns="http://www.w3.org/2000/svg" viewBox="8 10 43 39"><path d="m43.66 12.87 3.74 9.77H12.67l3.74-9.77h27.25m1.72-2.5H14.69L9 25.14h42l-5.62-14.77Z" fill="currentcolor" opacity=".75"/><path fill="#fff" opacity=".25" d="m43.66 12.87 3.74 9.77H12.67l3.74-9.77h27.25"/><path d="m9 25.14 2.52 23h37.7l1.78-23Zm28.33 13h-5.78v5.74h-3.11v-5.69h-5.77v-3.1h5.77v-5.74h3.11v5.74h5.78Z" fill="currentcolor"/></svg>

<svg xmlns="http://www.w3.org/2000/svg" viewBox="8 10 43 39"><path d="M43.66,12.87l3.74,9.77H12.67l3.74-9.77H43.66m1.72-2.5H14.69L9,25.14H51L45.38,10.37Z" fill="currentcolor" opacity="0.75"/><polyline points="43.66 12.87 47.4 22.64 12.67 22.64 16.41 12.87 43.66 12.87" fill="#fff" opacity="0.25"/><path d="M9,25.14l2.52,23h37.7l1.78-23Zm28.33,13H31.55v5.74H28.44V38.19H22.67v-3.1h5.77V29.35h3.11v5.74h5.78Z" fill="currentcolor"/></svg>
